X: 21052
T: GOD PRESERVE THE EMPEROR
C: Haydn
Q: "Andante"
%R: march
B: "Edinburgh Repository of Music" v.2 p.105 #2
F: http://digital.nls.uk/special-collections-of-printed-music/pageturner.cfm?id=87776133
Z: 2015 John Chambers <jc:trillian.mit.edu>
M: C|
L: 1/8
K: C
c3d |\
e2d2 f2e2 | dBc2 a2g2 | f2e2 d2ec | g4 :|\
d2e2 |\
dBG2 f2e2 | dBG2 g3f | e3e T^f3g | g4 c'3b |
{b}a2g2 a3g | {g}f2e2 d3e/f/ | gafd c2{e}dc | .c.d/.e/ .f/.g/.a/.b/ c'3b |\
{b}a2g2 a3g | {g}f2e2 a/^g/a/g/ {b}a=g/f/ | edfa c2{e}dc | c4 H|]
